packages/astro-components-stencil/src/icons/fitness-center.svg

<svg width="24" height="24" viewBox="0 0 24 24" fill="none" xmlns="http://www.w3.org/2000/svg">
<path d="M20.57 14.86L21.29 14.14C21.68 13.75 21.68 13.12 21.29 12.73L21.27 12.71C20.88 12.32 20.25 12.32 19.86 12.71L17 15.57L8.42998 6.99998L11.29 4.13998C11.68 3.74998 11.68 3.11998 11.29 2.72998L11.27 2.70998C10.88 2.31998 10.25 2.31998 9.85998 2.70998L9.13998 3.42998L8.41998 2.70998C8.02998 2.31998 7.38998 2.31998 6.99998 2.70998L5.56998 4.13998L4.84998 3.41998C4.45998 3.02998 3.80998 3.02998 3.41998 3.41998C3.02998 3.80998 3.02998 4.45998 3.41998 4.84998L4.13998 5.56998L2.70998 6.99998C2.31998 7.38998 2.31998 8.01998 2.70998 8.40998L3.42998 9.12998L2.70998 9.85998C2.31998 10.25 2.31998 10.88 2.70998 11.27L2.72998 11.29C3.11998 11.68 3.74998 11.68 4.13998 11.29L6.99998 8.42998L15.57 17L12.71 19.86C12.32 20.25 12.32 20.88 12.71 21.27L12.73 21.29C13.12 21.68 13.75 21.68 14.14 21.29L14.86 20.57L15.58 21.29C15.97 21.68 16.6 21.68 16.99 21.29L18.42 19.86L19.14 20.58C19.53 20.97 20.18 20.97 20.57 20.58C20.96 20.19 20.96 19.54 20.57 19.15L19.85 18.43L21.29 17C21.68 16.61 21.68 15.98 21.29 15.59L20.57 14.86Z" fill="black"/>
</svg>

<svg xmlns="http://www.w3.org/2000/svg" viewBox="0 0 24 24"><g xmlns="http://www.w3.org/2000/svg" id="fitness-center" fill-rule="nonzero">
            <path d="M20.57 14.86l.72-.72a.996.996 0 000-1.41l-.02-.02a.996.996 0 00-1.41 0L17 15.57 8.43 7l2.86-2.86a.996.996 0 000-1.41l-.02-.02a.996.996 0 00-1.41 0l-.72.72-.72-.72c-.39-.39-1.03-.39-1.42 0L5.57 4.14l-.72-.72a1.02 1.02 0 00-1.43 0 1.02 1.02 0 000 1.43l.72.72L2.71 7a.996.996 0 000 1.41l.72.72-.72.73a.996.996 0 000 1.41l.02.02c.39.39 1.02.39 1.41 0L7 8.43 15.57 17l-2.86 2.86a.996.996 0 000 1.41l.02.02c.39.39 1.02.39 1.41 0l.72-.72.72.72c.39.39 1.02.39 1.41 0l1.43-1.43.72.72c.39.39 1.04.39 1.43 0 .39-.39.39-1.04 0-1.43l-.72-.72L21.29 17a.996.996 0 000-1.41l-.72-.73z"/>
        </g></svg>
